static/assets/img/icons/theme/tools/pantone.svg

<svg height="24" viewBox="0 0 24 24" width="24" xmlns="http://www.w3.org/2000/svg"><g fill="none" fill-rule="evenodd"><path d="m0 0h24v24h-24z" opacity="0"/><g fill="#000"><path d="m22 15v4c0 1.1045695-.8954305 2-2 2h-12c-2.209139 0-4-1.790861-4-4s1.790861-4 4-4h12c1.1045695 0 2 .8954305 2 2zm-15 4c1.1045695 0 2-.8954305 2-2s-.8954305-2-2-2-2 .8954305-2 2 .8954305 2 2 2z" opacity=".3"/><path d="m15.5421357 5.69999981 2.8284271 2.82842712c.7810486.78104859.7810486 2.04737857 0 2.82842717l-8.48528133 8.4852813c-1.56209717 1.5620972-4.09475708 1.5620972-5.65685425 0-1.56209717-1.5620971-1.56209717-4.094757 0-5.6568542l8.48528138-8.48528139c.7810486-.78104858 2.0473785-.78104858 2.8284271 0zm-8.5421357 13.30000019c1.1045695 0 2-.8954305 2-2s-.8954305-2-2-2-2 .8954305-2 2 .8954305 2 2 2z" opacity=".3"/><path d="m5 3h4c1.1045695 0 2 .8954305 2 2v12c0 2.209139-1.790861 4-4 4s-4-1.790861-4-4v-12c0-1.1045695.8954305-2 2-2zm2 16c1.1045695 0 2-.8954305 2-2s-.8954305-2-2-2-2 .8954305-2 2 .8954305 2 2 2z"/></g></g></svg>

<svg width="24px" height="24px" viewBox="0 0 24 24" version="1.1" xmlns="http://www.w3.org/2000/svg" xmlns:xlink="http://www.w3.org/1999/xlink">
    <title>Icon For Pantone</title>
    <g stroke="none" stroke-width="1" fill="none" fill-rule="evenodd">
        <polygon opacity="0" points="0 0 24 0 24 24 0 24"></polygon>
        <path d="M22,15 L22,19 C22,20.1045695 21.1045695,21 20,21 L8,21 C5.790861,21 4,19.209139 4,17 C4,14.790861 5.790861,13 8,13 L20,13 C21.1045695,13 22,13.8954305 22,15 Z M7,19 C8.1045695,19 9,18.1045695 9,17 C9,15.8954305 8.1045695,15 7,15 C5.8954305,15 5,15.8954305 5,17 C5,18.1045695 5.8954305,19 7,19 Z" fill="#000000" opacity="0.3"></path>
        <path d="M15.5421357,5.69999981 L18.3705628,8.52842693 C19.1516114,9.30947552 19.1516114,10.5758055 18.3705628,11.3568541 L9.88528147,19.8421354 C8.3231843,21.4042326 5.79052439,21.4042326 4.22842722,19.8421354 C2.66633005,18.2800383 2.66633005,15.7473784 4.22842722,14.1852812 L12.7137086,5.69999981 C13.4947572,4.91895123 14.7610871,4.91895123 15.5421357,5.69999981 Z M7,19 C8.1045695,19 9,18.1045695 9,17 C9,15.8954305 8.1045695,15 7,15 C5.8954305,15 5,15.8954305 5,17 C5,18.1045695 5.8954305,19 7,19 Z" fill="#000000" opacity="0.3"></path>
        <path d="M5,3 L9,3 C10.1045695,3 11,3.8954305 11,5 L11,17 C11,19.209139 9.209139,21 7,21 C4.790861,21 3,19.209139 3,17 L3,5 C3,3.8954305 3.8954305,3 5,3 Z M7,19 C8.1045695,19 9,18.1045695 9,17 C9,15.8954305 8.1045695,15 7,15 C5.8954305,15 5,15.8954305 5,17 C5,18.1045695 5.8954305,19 7,19 Z" fill="#000000"></path>
    </g>
</svg>
